X:140
T:La Bergamasca
L:1/8
M:4/4
Z:Andy Hornby
%%TUNEURL: http://www.leeds.ac.uk/music/Info/RRTuneBk/gettune/00000d9f.html
%%ID:00000d9f
K:D
a2a2b2b2|a3g f3a|g2f2e2d2|d2e2f2d2|
a2a2b2b2|a3g f3a|g2f2e2d2|d2c2d4:|
|:f2ef g3f|ef ge f4|a2gf e2c2|d2e2f2d2|
f2ef g3f|ef ge f4|a2gf e2d2|d2c2d4:|
